src/pos-icons/arrow-collapse-left.svg

<svg height="24" viewBox="0 0 24 24" width="24" xmlns="http://www.w3.org/2000/svg"><path d="m11.92 19.92-7.92-7.92 7.92-7.92 1.41 1.42-5.5 5.5h14.17v2h-14.17l5.51 5.5zm-7.92-7.92v-10h-2v20h2z"/></svg>

<?xml version="1.0" encoding="UTF-8"?><!DOCTYPE svg PUBLIC "-//W3C//DTD SVG 1.1//EN" "http://www.w3.org/Graphics/SVG/1.1/DTD/svg11.dtd"><svg xmlns="http://www.w3.org/2000/svg" xmlns:xlink="http://www.w3.org/1999/xlink" version="1.1" id="mdi-arrow-collapse-left" width="24" height="24" viewBox="0 0 24 24"><path d="M11.92,19.92L4,12L11.92,4.08L13.33,5.5L7.83,11H22V13H7.83L13.34,18.5L11.92,19.92M4,12V2H2V22H4V12Z" /></svg>
